!!!COM: Claude Goudimel
!!!OMD: Psalm 73: Si est-ce que Dieu est tresdoux
**kern	**kern	**kern	**kern
*part4	*part3	*part2	*part1
*staff4	*staff3	*staff2	*staff1
*I"bassus	*I"tenor	*I"contra	*I"superius
*clefF3	*clefC3	*clefC2	*clefG2
*k[b-]	*k[b-]	*k[b-]	*k[b-]
!!LO:TX:omd:t=
*M2/2	*M2/2	*M2/2	*M2/2
*met(c|)	*met(c|)	*met(c|)	*met(c|)
=1	=1	=1	=1
1F	1c	1f	1a
=2	=2	=2	=2
2D	2d	2f	2a
2D	2f	2d	2a
=3	=3	=3	=3
2C	2e	2g	2cc
2G	[2d	2g	2bn
=4	=4	=4	=4
1F	2d]	1a	1cc
.	[2c	.	.
=5	=5	=5	=5
1D	2c]	1d	1f
.	2Bn	.	.
=6	=6	=6	=6
1C	1c	1e	1g
=7	=7	=7	=7
1r	1r	1r	1r
=8	=8	=8	=8
1F	1f	1a	1cc
=9	=9	=9	=9
2C	2e	2g	2cc
2G	2d	2g	2b-
=10	=10	=10	=10
1F	1f	1a	1cc
=11	=11	=11	=11
1F	1c	1f	1a
=12	=12	=12	=12
2D	2d	2f	2a
2C	2e	2g	2cc
=13	=13	=13	=13
1F	1f	1a	1cc
=14	=14	=14	=14
1r	1r	1r	1r
=15	=15	=15	=15
1F	1c	1f	1a
=16	=16	=16	=16
2BB-	2d	2f	2b-
2BB-	2d	2f	2b-
=17	=17	=17	=17
1C	1c	1e	1g
=18	=18	=18	=18
1F	1A	1c	1f
=19	=19	=19	=19
2D	2B-	2d	2f
2C	2c	2e	2a
=20	=20	=20	=20
1BB-	1d	1f	1b-
=21	=21	=21	=21
1C	1c	1e	1g
=22	=22	=22	=22
1r	1r	1r	1r
=23	=23	=23	=23
1F	1A	1c	1f
=24	=24	=24	=24
2F	2c	2f	2a
2C	2c	2e	2g
=25	=25	=25	=25
1D	1A	1d	1f
=26	=26	=26	=26
1D	1F	1d	1a
=27	=27	=27	=27
2E-X	2B-	2G	2g
2F	2A	2c	[2f
=28	=28	=28	=28
1C	1G	1c	2f]
.	.	.	2e
=29	=29	=29	=29
1F	1F	1c	1f
=30	=30	=30	=30
1r	1r	1r	1r
=31	=31	=31	=31
1A	1c	1e	1a
=32	=32	=32	=32
2G	2d	2g	2b-
2c	2e	2g	2cc
=33	=33	=33	=33
2F	2f	2a	2cc
2BB-	2d	2f	2b-
=34	=34	=34	=34
1F	1c	1f	1a
=35	=35	=35	=35
1G	1B-	1d	1g
=36	=36	=36	=36
1D	1A	1d	1f#X
=37	=37	=37	=37
1r	1r	1r	1r
=38	=38	=38	=38
1D	1A	1d	1f
=39	=39	=39	=39
2G	2B-	2d	2g
2F	2c	2f	2a
=40	=40	=40	=40
1BB-	1d	1f	1b-
=41	=41	=41	=41
2F	2c	2f	2a
2G	2B-	2d	[2g
=42	=42	=42	=42
1D	1A	1d	2g]
.	.	.	2f#X
=43	=43	=43	=43
1G	1G	1d	1g
=44	=44	=44	=44
1r	1r	1r	1r
=45	=45	=45	=45
1F	1c	1f	1a
=46	=46	=46	=46
2D	2d	2f	2a
2C	2e	2g	2cc
=47	=47	=47	=47
2F	2c	2f	2a
2F	2f	2a	2cc
=48	=48	=48	=48
1C	1e	1g	1cc
=49	=49	=49	=49
1G	1d	1g	1b-
=50	=50	=50	=50
1C	1c	1e	1g
=51	=51	=51	=51
1r	1r	1r	1r
=52	=52	=52	=52
1D	1A	1d	1f
=53	=53	=53	=53
2G	2B-	2d	2g
2C	2c	2e	2g
=54	=54	=54	=54
2C	2G	2c	2e
2BB-	2B-	2d	[2g
=55	=55	=55	=55
1F	1A	1c	2g]
.	.	.	[2f
=56	=56	=56	=56
1C	1G	1c	2f]
.	.	.	2e
=57	=57	=57	=57
1F;	1F;	1c;	1f;
==	==	==	==
*-	*-	*-	*-
!!!software: music21 v.9.7.1
!!!software: music21 v.9.1.0
!!!RDF**kern: > = above
!!!RDF**kern: < = below
